X: 568
T: Shui buxing
%%abc-version 2.0
%%abcx-abcm2ps-target-version 5.9.1 (29 Sep 2008)
%%abc-creator hum2abc beta
%%abcx-conversion-date 2013/10/02 07:52:30
%%abc-edited-by Helmut Schaffrath
%%humdrum-veritas 2142030342
%%humdrum-veritas-data 3948464169
%%continueall 1
%%barnumbers 0
L: 1/8
M: 2/4
K: A
A A A F [I:setbarnb 1]| 
e4 | 
e3f | 
e e/ e/ e A | 
B2z2 | 
e e e A | 
B2z2 | 
e e e A | 
B2z2 | 
e c e c/ F/ | 
E E/ F/E2 | 
e e e c/ F/ | 
E E/ F/E2 | 
B cB2 | 
B e c e | 
B> c E E/ F/ | 
E E/ F/ E E/ F/ | 
E E/ F/ A F | 
E4 |]  



